images/UpgradeGraphics/BCHUpgrades_Icons/23.svg

<svg xmlns="http://www.w3.org/2000/svg" fill="none" viewBox="4.73 0 804.35 657.25" xmlns:v="https://vecta.io/nano"><path d="M288.691 235.888c27.263-15.74 71.464-15.74 98.727 0L759.137 450.5c27.263 15.74 27.263 41.26 0 57L520.214 645.442c-27.263 15.74-71.464 15.74-98.727 0L49.768 430.83c-27.263-15.74-27.263-41.26 0-57l238.923-137.942z" fill="url(#A)"/><rect width="547.392" height="381.39" rx="57" transform="matrix(.866025 .5 -.866025 .5 335.023 187.116)" fill="url(#B)"/><use href="#K" transform="matrix(.866025 .5 -.866025 .5 430.953 106)" fill="url(#C)"/><path d="M348.328 154l83 47.92v235.767l-83-47.92V154z" fill="url(#D)"/><path transform="matrix(.866025 -.5 0 1 431.328 202.044)" fill="url(#E)" d="M0 0h95.84v236.022H0z"/><use href="#K" transform="matrix(.866025 .5 -.866025 .5 596.953 191)" fill="url(#C)"/><path d="M514.328 239l83 47.92v235.113l-83-47.92V239z" fill="url(#F)"/><path transform="matrix(.866025 -.5 0 1 597.328 287.044)" fill="url(#G)" d="M0 0h95.84v235.828H0z"/><path fill-rule="evenodd" d="M174.026 340.328l-43.897-1.407-22.55 13.019.168.105-49.575 28.622 189.869 109.621 71.433-41.242h0l52.523-30.324-80.043-10.308-8.268-10.111-33.446-11.062-17.859-13.222-38.301-11.276-20.054-22.415z" fill="url(#H)" fill-opacity=".62" style="mix-blend-mode:screen"/><use href="#K" transform="matrix(.866025 .5 -.866025 .5 264.953 0)" fill="url(#C)"/><path d="M182.328 48l83 47.92v262.199l-83-47.92V48z" fill="url(#I)"/><path transform="matrix(.866025 -.5 0 1 265.328 96.0439)" fill="url(#J)" d="M0 0h95.84v262.184H0z"/><path d="M515.328 568.25c16.217-9.363 25.933-21.921 27.551-35.612s-4.957-27.7-18.645-39.724-33.675-21.347-56.676-26.439-47.648-5.647-69.889-1.577-40.755 12.526-52.497 23.976-16.014 25.213-12.115 39.029 15.737 26.86 33.57 36.991 40.599 16.746 64.557 18.756l6.202-60.4 77.942 45z" fill="#fff" fill-opacity=".57" style="mix-blend-mode:screen"/><path d="M515.328 568.25c-9.382 5.417-20.689 9.617-33.275 12.36s-26.202 3.976-40.074 3.628-27.728-2.271-40.774-5.657-25.031-8.172-35.266-14.081l71.447-41.25 77.942 45z" fill="#13edb1" style="mix-blend-mode:screen"/><path d="M273.258 506.966a1 1 0 0 0 .708-1.224l-2.32-8.696a1 1 0 1 0-1.933.516l2.063 7.73-7.73 2.062a1 1 0 1 0 .516 1.933l8.696-2.321zm-216.759-125.1l216 125 1.002-1.732-216-125-1.002 1.732z" fill="#fff"/><defs><linearGradient id="A" x1="304.787" y1="682.248" x2="447.653" y2="371.949" href="#L"><stop offset="1" stop-color="#13b3d3"/></linearGradient><linearGradient id="B" x1="401.44" y1="381.39" x2="357.192" y2="-23.107" href="#L"><stop stop-color="#13edb1"/><stop offset="1" stop-color="#13b3d3"/></linearGradient><linearGradient id="C" x1="48.108" y1="0" x2="48.108" y2="95.784" href="#L"><stop stop-color="#13edb1"/><stop offset="1" stop-color="#13b3d3"/></linearGradient><linearGradient id="D" x1="450.894" y1="305.57" x2="366.085" y2="306.846" href="#L"><stop stop-color="#13edb1"/><stop offset="1" stop-color="#13b3d3"/></linearGradient><linearGradient id="E" x1="47.92" y1="0" x2="47.92" y2="236.022" href="#L"><stop stop-color="#13edb1"/><stop offset="1" stop-color="#13b3d3"/></linearGradient><linearGradient id="F" x1="616.894" y1="390.314" x2="532.087" y2="391.594" href="#L"><stop stop-color="#13edb1"/><stop offset="1" stop-color="#13b3d3"/></linearGradient><linearGradient id="G" x1="47.92" y1="0" x2="47.92" y2="235.828" href="#L"><stop stop-color="#13edb1"/><stop offset="1" stop-color="#13b3d3"/></linearGradient><linearGradient id="H" x1="276.975" y1="363.861" x2="214.997" y2="471.21" href="#L"><stop stop-color="#13edb1"/><stop offset="1" stop-color="#13b3d3"/></linearGradient><linearGradient id="I" x1="284.894" y1="209.924" x2="200.007" y2="211.074" href="#L"><stop stop-color="#13edb1"/><stop offset="1" stop-color="#13b3d3"/></linearGradient><linearGradient id="J" x1="47.92" y1="0" x2="47.92" y2="262.184" href="#L"><stop stop-color="#13edb1"/><stop offset="1" stop-color="#13b3d3"/></linearGradient><path id="K" d="M0 0h96.216v95.784H0z"/><linearGradient id="L" gradientUnits="userSpaceOnUse"/></defs></svg>

<svg xmlns="http://www.w3.org/2000/svg" fill="none" viewBox="4.73 0 804.35 657.25">
<g id="Group 98">
<path id="Rectangle 125" d="M288.691 235.888C315.954 220.148 360.155 220.148 387.418 235.888L759.137 450.5C786.4 466.24 786.4 491.76 759.137 507.5L520.214 645.442C492.951 661.182 448.75 661.182 421.487 645.442L49.7683 430.83C22.5056 415.09 22.5056 389.57 49.7683 373.83L288.691 235.888Z" fill="url(#paint0_linear_149_12)"/>
<rect id="Rectangle 124" width="547.392" height="381.39" rx="57" transform="matrix(0.866025 0.5 -0.866025 0.5 335.023 187.116)" fill="url(#paint1_linear_149_12)"/>
<g id="Group 13">
<rect id="Rectangle 124_2" width="96.2165" height="95.7835" transform="matrix(0.866025 0.5 -0.866025 0.5 430.953 106)" fill="url(#paint2_linear_149_12)"/>
<path id="Rectangle 125_2" d="M348.328 154L431.328 201.92V437.687L348.328 389.767V154Z" fill="url(#paint3_linear_149_12)"/>
<rect id="Rectangle 126" width="95.8401" height="236.022" transform="matrix(0.866025 -0.5 0 1 431.328 202.044)" fill="url(#paint4_linear_149_12)"/>
</g>
<g id="Group 12">
<rect id="Rectangle 124_3" width="96.2165" height="95.7835" transform="matrix(0.866025 0.5 -0.866025 0.5 596.953 191)" fill="url(#paint5_linear_149_12)"/>
<path id="Rectangle 125_3" d="M514.328 239L597.328 286.92V522.033L514.328 474.113V239Z" fill="url(#paint6_linear_149_12)"/>
<rect id="Rectangle 126_2" width="95.8401" height="235.828" transform="matrix(0.866025 -0.5 0 1 597.328 287.044)" fill="url(#paint7_linear_149_12)"/>
</g>
<g id="Union" style="mix-blend-mode:screen">
<path fill-rule="evenodd" clip-rule="evenodd" d="M174.026 340.328L130.129 338.921L107.579 351.94L107.747 352.045L58.1716 380.667L248.041 490.288L319.474 449.046L319.474 449.046L371.997 418.722L291.954 408.414L283.686 398.303L250.24 387.241L232.381 374.019L194.08 362.743L174.026 340.328Z" fill="url(#paint8_linear_149_12)" fill-opacity="0.62"/>
</g>
<g id="Group 11">
<rect id="Rectangle 124_4" width="96.2165" height="95.7835" transform="matrix(0.866025 0.5 -0.866025 0.5 264.953 0)" fill="url(#paint9_linear_149_12)"/>
<path id="Rectangle 125_4" d="M182.328 48L265.328 95.9201V358.119L182.328 310.199V48Z" fill="url(#paint10_linear_149_12)"/>
<rect id="Rectangle 126_3" width="95.8401" height="262.184" transform="matrix(0.866025 -0.5 0 1 265.328 96.0439)" fill="url(#paint11_linear_149_12)"/>
</g>
<g id="Ellipse 15" style="mix-blend-mode:screen">
<path d="M515.328 568.25C531.545 558.887 541.261 546.329 542.879 532.638C544.498 518.947 537.922 504.938 524.234 492.914C510.546 480.891 490.559 471.567 467.558 466.475C444.557 461.384 419.91 460.828 397.669 464.898C375.427 468.969 356.914 477.424 345.172 488.874C333.43 500.324 329.158 514.087 333.057 527.903C336.956 541.718 348.794 554.763 366.627 564.894C384.46 575.025 407.226 581.64 431.184 583.65L437.386 523.25L515.328 568.25Z" fill="white" fill-opacity="0.57"/>
</g>
<g id="Ellipse 16" style="mix-blend-mode:screen">
<path d="M515.328 568.25C505.946 573.667 494.639 577.867 482.053 580.61C469.468 583.353 455.851 584.586 441.979 584.238C428.107 583.89 414.251 581.967 401.205 578.581C388.158 575.194 376.174 570.409 365.939 564.5L437.386 523.25L515.328 568.25Z" fill="#13EDB1"/>
</g>
<path id="Arrow 2" d="M273.258 506.966C273.791 506.824 274.109 506.276 273.966 505.742L271.646 497.046C271.503 496.513 270.955 496.196 270.422 496.338C269.888 496.481 269.571 497.029 269.713 497.562L271.776 505.292L264.046 507.354C263.513 507.497 263.196 508.045 263.338 508.578C263.481 509.112 264.029 509.429 264.562 509.287L273.258 506.966ZM56.4991 381.866L272.499 506.866L273.501 505.134L57.5009 380.134L56.4991 381.866Z" fill="white"/>
</g>
<defs>
<linearGradient id="paint0_linear_149_12" x1="304.787" y1="682.248" x2="447.653" y2="371.949" gradientUnits="userSpaceOnUse">
<stop offset="1" stop-color="#13B3D3"/>
</linearGradient>
<linearGradient id="paint1_linear_149_12" x1="401.44" y1="381.39" x2="357.192" y2="-23.1075" gradientUnits="userSpaceOnUse">
<stop stop-color="#13EDB1"/>
<stop offset="1" stop-color="#13B3D3"/>
</linearGradient>
<linearGradient id="paint2_linear_149_12" x1="48.1083" y1="0" x2="48.1083" y2="95.7835" gradientUnits="userSpaceOnUse">
<stop stop-color="#13EDB1"/>
<stop offset="1" stop-color="#13B3D3"/>
</linearGradient>
<linearGradient id="paint3_linear_149_12" x1="450.894" y1="305.57" x2="366.085" y2="306.846" gradientUnits="userSpaceOnUse">
<stop stop-color="#13EDB1"/>
<stop offset="1" stop-color="#13B3D3"/>
</linearGradient>
<linearGradient id="paint4_linear_149_12" x1="47.9201" y1="0" x2="47.9201" y2="236.022" gradientUnits="userSpaceOnUse">
<stop stop-color="#13EDB1"/>
<stop offset="1" stop-color="#13B3D3"/>
</linearGradient>
<linearGradient id="paint5_linear_149_12" x1="48.1083" y1="0" x2="48.1083" y2="95.7835" gradientUnits="userSpaceOnUse">
<stop stop-color="#13EDB1"/>
<stop offset="1" stop-color="#13B3D3"/>
</linearGradient>
<linearGradient id="paint6_linear_149_12" x1="616.894" y1="390.314" x2="532.087" y2="391.594" gradientUnits="userSpaceOnUse">
<stop stop-color="#13EDB1"/>
<stop offset="1" stop-color="#13B3D3"/>
</linearGradient>
<linearGradient id="paint7_linear_149_12" x1="47.9201" y1="0" x2="47.9201" y2="235.828" gradientUnits="userSpaceOnUse">
<stop stop-color="#13EDB1"/>
<stop offset="1" stop-color="#13B3D3"/>
</linearGradient>
<linearGradient id="paint8_linear_149_12" x1="276.975" y1="363.861" x2="214.997" y2="471.21" gradientUnits="userSpaceOnUse">
<stop stop-color="#13EDB1"/>
<stop offset="1" stop-color="#13B3D3"/>
</linearGradient>
<linearGradient id="paint9_linear_149_12" x1="48.1083" y1="0" x2="48.1083" y2="95.7835" gradientUnits="userSpaceOnUse">
<stop stop-color="#13EDB1"/>
<stop offset="1" stop-color="#13B3D3"/>
</linearGradient>
<linearGradient id="paint10_linear_149_12" x1="284.894" y1="209.924" x2="200.007" y2="211.074" gradientUnits="userSpaceOnUse">
<stop stop-color="#13EDB1"/>
<stop offset="1" stop-color="#13B3D3"/>
</linearGradient>
<linearGradient id="paint11_linear_149_12" x1="47.9201" y1="0" x2="47.9201" y2="262.184" gradientUnits="userSpaceOnUse">
<stop stop-color="#13EDB1"/>
<stop offset="1" stop-color="#13B3D3"/>
</linearGradient>
</defs>
</svg>
